Point/img/garant4.svg

<svg width="120" height="129" viewBox="0 0 120 129" fill="none" xmlns="http://www.w3.org/2000/svg">
<path fill-rule="evenodd" clip-rule="evenodd" d="M70.838 2.45555C56.3698 1.01031 29.2743 -3.27122 17.2203 4.65562C5.05884 12.6531 2.78466 28.0242 0.439934 42.1333C-1.66564 54.8033 4.29472 66.6164 7.57549 79.0472C11.1396 92.5515 3.74394 109.959 14.0893 119.596C24.8846 129.652 51.4374 129.055 66.2198 126.963C80.1663 124.99 84.661 115.012 96.2221 107.162C108.115 99.0869 111.859 109.349 116.162 95.8643C120.469 82.3694 122.03 57.6053 116.162 44.681C111.038 33.3946 108.638 20.5876 98.863 12.7359C88.7574 4.61845 83.8682 3.75717 70.838 2.45555Z" fill="#E1E5F0"/>
<path d="M47.9324 43.1389C41.3153 43.1389 35.9493 48.4498 35.9493 55.0021C35.9493 60.2914 38.0464 72.8449 58.6883 85.5349C59.0581 85.7599 59.4826 85.8789 59.9154 85.8789C60.3482 85.8789 60.7727 85.7599 61.1425 85.5349C81.7844 72.8449 83.8815 60.2914 83.8815 55.0021C83.8815 48.4498 78.5155 43.1389 71.8984 43.1389C65.2814 43.1389 59.9154 50.3287 59.9154 50.3287C59.9154 50.3287 54.5494 43.1389 47.9324 43.1389Z" stroke="#00325A" stroke-width="4.79321" stroke-linecap="round" stroke-linejoin="round"/>
</svg>

<svg width="120" height="129" fill="none" xmlns="http://www.w3.org/2000/svg"><path fill-rule="evenodd" clip-rule="evenodd" d="M70.838 2.456C56.37 1.01 29.274-3.271 17.22 4.656 5.06 12.653 2.785 28.024.44 42.133c-2.106 12.67 3.855 24.483 7.135 36.914 3.565 13.505-3.831 30.912 6.514 40.549 10.796 10.056 37.348 9.459 52.13 7.367 13.947-1.973 18.442-11.951 30.003-19.801 11.893-8.075 15.637 2.187 19.94-11.298 4.307-13.495 5.868-38.259 0-51.183-5.124-11.286-7.524-24.093-17.299-31.945-10.106-8.118-14.995-8.979-28.025-10.28z" fill="#E1E5F0"/><path d="M47.932 43.139c-6.617 0-11.983 5.31-11.983 11.863 0 5.29 2.097 17.843 22.74 30.533a2.36 2.36 0 002.453 0c20.642-12.69 22.74-25.244 22.74-30.533 0-6.552-5.367-11.863-11.984-11.863s-11.983 7.19-11.983 7.19-5.366-7.19-11.983-7.19z" stroke="#00325A" stroke-width="4.793" stroke-linecap="round" stroke-linejoin="round"/></svg>
